X:238
T:Gigue du lendemain
C:Jean Rhéaume
M:4/4
L:1/8
R:Reel
K:D
FG || A3B AGFE | DEFD E2E2 | AEE2 BEE2 | edcB AGFG |
A3B AGFE | DEFD E2E2 | AEE2 BEE2 | edcB e2A2 ||
dAA2 dAA2 | cded c2c2 | dcAG AGAc | AGAc A2A2 |
dAA2 dAA2 | cded c2c2 | dcAG A2AB | AGFE D2 (3(DEF) ||
GFGB cAce | fdAF G3F | EFGA B2Be | edcB AGFG |
A3B AGFE | DEFD E2E2 | AEE2 BEE2 | edcB AGFG |
A3B AGFE | DEFD E2E2 | FAdA BdcB | AGFE D2FG |]
